!!!OTL: WAS WOLLEN DIE HAUSAREN ESSEN
!!!ARE: Europa, Mitteleuropa, Deutschland; France, Elsass
!!!SCT: E1325
!!!YEM: Copyright 1995, estate of Helmut Schaffrath.
**kern
*ICvox
*Ivox
*M2/4
*k[f#]
*G:
{8d
=1
8g
8g
8g
8g
=2
4g
8f#
8g
=3
4a
4f#
=4
4r}
{8f#
8g
=5
4a
8a
8a
=6
4a
8g
8a
=7
4b
4g
=8
4r}
{8.dd
16dd
=9
4dd
8.b
16b
=10
4b
8.ee
16dd
=11
4dd
4cc
=12
4cc}
{8a
8b
=13
8.cc
16cc
8cc
8cc
=14
8cc
8ee
8dd
8cc
=15
8.b
16b
8b
8b
=16
4b}
{8.b
16cc
=17
2dd
=18
4ee
8.cc
16cc
=19
4cc
4dd
=20
4b
8r}
==
!!!AGN: Staende -, Soldaten -, Kriegs - Lied
!!!ONB: ESAC (Essen Associative Code) Database: ERK3
!!!AMT: simple duple
!!!AIN: vox
!!!EED: Helmut Schaffrath
!!!EEV: 1.0
*-
